X:1
L:1/8
M:6/8
K:G
 GGG Bcd | BGB c2 A | GGG Bcd | AFA c2 A | GGG Bcd | BGd g2 d | ece dBd | AFA c2 A :| gfe dcB | 
 BGB d2 B | gfg def | AFA c2 A | gfe def | gfe dcB | cac BgB | AFA c2 A :| GBG D2 D | BGB c2 A | 
 GBG D2 D | AFA c2 A | GBG D2 d | ged cBA | cec BdB | AFA c2 A :|
